X:387
T:B387-  The Rant, or Give Ear to a Frolicsome Ditty
S:(1st/2)
Q:1/4=120
L:1/4
M:3/4
K:C
c3|(cA)A|(BG)G|c2c|\
(ge)d|e2e|g2a|(ge)c|\
(dB)c|A3/2B/c|(dB)G|c3:]

